img/icon-telegram.svg

<svg width="25" height="25" viewBox="0 0 25 25" fill="none" xmlns="http://www.w3.org/2000/svg">
<g clip-path="url(#clip0_1_316)">
<path d="M12.5 25C19.4036 25 25 19.4036 25 12.5C25 5.59644 19.4036 0 12.5 0C5.59644 0 0 5.59644 0 12.5C0 19.4036 5.59644 25 12.5 25Z" fill="#039BE5"/>
<path d="M5.7197 12.2291L17.7718 7.58226C18.3312 7.38018 18.8197 7.71872 18.6384 8.56456L18.6395 8.56351L16.5874 18.2312C16.4353 18.9166 16.028 19.0833 15.4582 18.7604L12.3332 16.4573L10.8259 17.9093C10.6593 18.076 10.5187 18.2166 10.1957 18.2166L10.4176 15.0364L16.2093 9.80414C16.4614 9.58226 16.153 9.45726 15.8207 9.6781L8.66345 14.1843L5.57803 13.2218C4.90824 13.0093 4.89366 12.5521 5.7197 12.2291V12.2291Z" fill="white"/>
</g>
<defs>
<clipPath id="clip0_1_316">
<rect width="25" height="25" fill="white"/>
</clipPath>
</defs>
</svg>

<svg width="25" height="25" fill="none" xmlns="http://www.w3.org/2000/svg"><path d="M12.5 25C19.404 25 25 19.404 25 12.5S19.404 0 12.5 0 0 5.596 0 12.5 5.596 25 12.5 25Z" fill="#039BE5"/><path d="m5.72 12.23 12.052-4.648c.56-.202 1.048.137.866.983l.002-.001-2.053 9.667c-.152.686-.559.852-1.129.53l-3.125-2.304-1.507 1.452c-.167.167-.307.308-.63.308l.222-3.18 5.791-5.233c.252-.222-.056-.347-.388-.126l-7.158 4.506-3.085-.962c-.67-.213-.684-.67.142-.993Z" fill="#fff"/></svg>
